X:1
T: Larry Grogan
P:Roche version
R:Jig
Q:180
K:G
M:6/8
L:1/16
|:A2|B6 B2A2G2|A2B2A2 A2B2c2|d2e2d2 c2A2G2|G2B2d2 g2d2c2|
B6 B2A2G2|A2B2A2 A2B2c2|d2e2d2 c2A2F2|A2G2G2 G4:|
|:e2|f6 f2e2d2|c2A2G2 F2G2A2|g6 g2f2g2|a2f2d2 d4e2|
f6 f2e2d2|c2A2G2 F2G2A2|Bcd2B2 c2A2F2|A2G2G2 G4:|
